X:502
T: ALS D JUDEN DEN HERRN
N: E1759
O: Europa, Mitteleuropa, Deutschland, Bayern
R: Scherz - Lied, biblischer Stoff
M: 6/8
L: 1/8
K: G
D | GGGBAG | F2AD2
D | GGGBAG | A3z2
D | cccedc | BBdG2
B | AAADEF | G3z2

@@@ Tune index: 5186
